icon_logout.svg

<?xml version="1.0" encoding="utf-8"?>
<svg version="1.1" id="Ebene_1" x="0px" y="0px" viewBox="0 0 42.5 42.5" style="enable-background:new 0 0 42.5 42.5;" xmlns="http://www.w3.org/2000/svg">
  <g>
    <path d="M 38 13.4 L 38 29 C 38 30.8 37.4 32.3 36.1 33.5 C 34.8 34.7 33.4 35.4 31.6 35.4 L 24.5 35.4 C 24.3 35.4 24.1 35.3 24 35.2 C 23.9 35.1 23.8 34.9 23.8 34.7 C 23.8 34.6 23.8 34.5 23.8 34.3 C 23.8 34.1 23.8 33.9 23.8 33.7 C 23.8 33.5 23.8 33.4 23.9 33.2 C 23.9 33 24 32.9 24.1 32.8 C 24.2 32.7 24.4 32.7 24.6 32.7 L 31.7 32.7 C 32.7 32.7 33.5 32.4 34.2 31.7 C 34.9 31 35.2 30.2 35.2 29.2 L 35.2 13.4 C 35.2 12.4 34.9 11.6 34.2 10.9 C 33.5 10.2 32.7 9.9 31.7 9.9 L 24.8 9.9 L 24.5 9.9 L 24.2 9.8 L 24 9.6 L 23.8 9.4 L 23.8 9.1 C 23.8 9 23.8 8.9 23.8 8.7 C 23.8 8.5 23.8 8.3 23.8 8.1 C 23.8 7.9 23.8 7.8 23.9 7.6 C 24 7.4 24 7.3 24.1 7.2 C 24.2 7 24.4 7 24.6 7 L 31.7 7 C 33.5 7 35 7.6 36.2 8.9 C 37.4 10.2 38 11.6 38 13.4 Z" transform="matrix(-1, 0, 0, -1, 42, 42.400002)"/>
    <path d="M 38.498 21.161 C 38.498 21.561 38.398 21.861 38.098 22.161 L 26.098 34.161 C 25.798 34.461 25.498 34.561 25.098 34.561 C 24.698 34.561 24.398 34.461 24.098 34.161 C 23.798 33.861 23.698 33.561 23.698 33.161 L 23.698 26.761 L 13.698 26.761 C 13.298 26.761 12.998 26.661 12.698 26.361 C 12.398 26.061 12.298 25.761 12.298 25.361 L 12.298 16.861 C 12.298 16.461 12.398 16.161 12.698 15.861 C 12.998 15.561 13.298 15.461 13.698 15.461 L 23.598 15.461 L 23.598 9.061 C 23.598 8.661 23.698 8.361 23.998 8.061 C 24.298 7.761 24.598 7.661 24.998 7.661 C 25.398 7.661 25.698 7.761 25.998 8.061 L 37.998 20.061 C 38.398 20.461 38.498 20.761 38.498 21.161 Z"/>
  </g>
</svg>

<?xml version="1.0" encoding="utf-8"?>
<!-- Generator: Adobe Illustrator 21.1.0, SVG Export Plug-In . SVG Version: 6.00 Build 0)  -->
<svg version="1.1" id="Ebene_1" xmlns="http://www.w3.org/2000/svg" xmlns:xlink="http://www.w3.org/1999/xlink" x="0px" y="0px"
	 viewBox="0 0 42.5 42.5" style="enable-background:new 0 0 42.5 42.5;" xml:space="preserve">
<path d="M30.2,21.2c0,0.4-0.1,0.7-0.4,1l-12,12c-0.3,0.3-0.6,0.4-1,0.4s-0.7-0.1-1-0.4c-0.3-0.3-0.4-0.6-0.4-1v-6.4H5.4
	c-0.4,0-0.7-0.1-1-0.4c-0.3-0.3-0.4-0.6-0.4-1v-8.5c0-0.4,0.1-0.7,0.4-1c0.3-0.3,0.6-0.4,1-0.4h9.9V9.1c0-0.4,0.1-0.7,0.4-1
	c0.3-0.3,0.6-0.4,1-0.4s0.7,0.1,1,0.4l12,12C30.1,20.5,30.2,20.8,30.2,21.2z M38,13.4V29c0,1.8-0.6,3.3-1.9,4.5s-2.7,1.9-4.5,1.9
	h-7.1c-0.2,0-0.4-0.1-0.5-0.2c-0.1-0.1-0.2-0.3-0.2-0.5c0-0.1,0-0.2,0-0.4c0-0.2,0-0.4,0-0.6c0-0.2,0-0.3,0.1-0.5
	c0-0.2,0.1-0.3,0.2-0.4c0.1-0.1,0.3-0.1,0.5-0.1h7.1c1,0,1.8-0.3,2.5-1c0.7-0.7,1-1.5,1-2.5V13.4c0-1-0.3-1.8-1-2.5
	c-0.7-0.7-1.5-1-2.5-1h-6.9l-0.3,0l-0.3-0.1L24,9.6l-0.2-0.2l0-0.3c0-0.1,0-0.2,0-0.4c0-0.2,0-0.4,0-0.6s0-0.3,0.1-0.5
	s0.1-0.3,0.2-0.4C24.2,7,24.4,7,24.6,7h7.1c1.8,0,3.3,0.6,4.5,1.9S38,11.6,38,13.4z"/>
</svg>
